svg/book.svg

<svg xmlns="http://www.w3.org/2000/svg" viewBox="0 0 42 64" enable-background="new 0 0 42 64"><style type="text/css">.st0{fill:#343434;}</style><title>book</title><desc>Created with Sketch.</desc><path class="st0" d="M35 0h-35v56h4v8l5-2 5 2v-8h21c3.9 0 7-3.1 7-7v-42c0-3.9-3.1-7-7-7zm-31 4h4v48h-4v-48zm5 54l-2 1v-3h4v3l-2-1zm29-9c0 1.7-1.3 3-3 3h-23v-48h23c1.7 0 3 1.3 3 3v42zM31 14h-12c-1.1 0-2 .9-2 2v4c0 1.1.9 2 2 2h12c1.1 0 2-.9 2-2v-4c0-1.1-.9-2-2-2zm-1 5h-10v-2h10v2z"/></svg>

<?xml version="1.0" encoding="utf-8"?>
<!-- Generator: Adobe Illustrator 21.0.0, SVG Export Plug-In . SVG Version: 6.00 Build 0)  -->
<svg version="1.1" id="Layer_1" xmlns="http://www.w3.org/2000/svg" xmlns:xlink="http://www.w3.org/1999/xlink" x="0px" y="0px"
	 viewBox="0 0 42 64" style="enable-background:new 0 0 42 64;" xml:space="preserve">
<style type="text/css">
	.st0{fill:#343434;}
</style>
<title>book</title>
<desc>Created with Sketch.</desc>
<g>
	<path class="st0" d="M35,0H12H8H0v56h4v8l5-2l5,2v-8h21c3.9,0,7-3.1,7-7V7C42,3.1,38.9,0,35,0z M4,4h4v48H7H4V4z M9,58l-2,1l0-3h1
		h3v3L9,58z M38,49c0,1.7-1.3,3-3,3H14h-2V4h23c1.7,0,3,1.3,3,3V49z"/>
	<path class="st0" d="M31,14H19c-1.1,0-2,0.9-2,2v4c0,1.1,0.9,2,2,2h12c1.1,0,2-0.9,2-2v-4C33,14.9,32.1,14,31,14z M30,19H20v-2h10
		V19z"/>
</g>
</svg>
